!!!SOCIAL_FUNCTION:	songs of ceremonial dances
!!!PDT:	1958
!!!OTL: No_7_Song_of_the_Bear_Dance_(a).krn
!!!REG: Northern California
!!!LANG: Non-Tone
!!!LING_GROUP: Penutian
**kern
*staff1
=1-
*clefF4
*k[f#c#g#d#]
*M3/4
8G#\L
16G#\L
16G#\JJ
8A\L
16G#\L
16G#\JJ
8G#\
8r
=2
*M2/4
8G#\L
8F#\J
16.G#\LL
32G#\JK
8G#\J
=3
8A\L
16G#\L
16G#\JJ
8G#\
16r
16d#\
=4!|:
4c#\
8c#\L
16B\L
16B\JJ
=5
*M3/4
8G#\L
16G#\L
16G#\JJ
8F#\L
8F#\J
8.r
16d#\
=6
*M2/4
4c#\
8c#\L
16B\L
16B\JJ
=7
*M3/4
8G#\L
16G#\L
16G#\JJ
8F#\L
8F#\J
4r
=8
*M2/4
8G#\L
8F#\J
16.G#\LL
32G#\JK
8G#\J
=9
8A\L
16G#\L
16G#\JJ
8G#\
8r
=10||
8G#\L
8F#\J
16G#\LL
16G#\J
8G#\J
=11
8A\L
16G#\L
16G#\JJ
8G#\
16r
16d#\
==:|!
*-
